src/22/actions/node-segment-line.svg

<svg xmlns="http://www.w3.org/2000/svg" viewBox="0 0 22 22">
  <defs id="defs3051">
    <style type="text/css" id="current-color-scheme">
      .ColorScheme-Text {
        color:#5d656b;
      }
      .ColorScheme-Highlight {
        color:#3daee9;
      }
      </style>
  </defs>
 <path 
     style="fill:currentColor;fill-opacity:1;stroke:none" 
     d="M 16.646484 4.6464844 L 4.6464844 16.646484 L 5.3535156 17.353516 L 17.353516 5.3535156 L 16.646484 4.6464844 z "
     class="ColorScheme-Text"
     />
 <path 
     style="fill:currentColor;fill-opacity:1;stroke:none" 
     d="M 16 3 L 16 6 L 19 6 L 19 3 L 16 3 z M 17 4 L 18 4 L 18 5 L 17 5 L 17 4 z M 3 16 L 3 19 L 6 19 L 6 16 L 3 16 z M 4 17 L 5 17 L 5 18 L 4 18 L 4 17 z "
     class="ColorScheme-Highlight"
     />
</svg>

<svg xmlns="http://www.w3.org/2000/svg" viewBox="0 0 22 22"><path d="M16.646 4.646l-12 12 .708.708 12-12-.708-.708z" fill="currentColor" color="#5d656b"/><path d="M16 3v3h3V3h-3zm1 1h1v1h-1V4zM3 16v3h3v-3H3zm1 1h1v1H4v-1z" fill="currentColor" color="#3daee9"/></svg>
